X: 10791
T: MISS GRACE MENZIES' STRATHSPEY
C: Marshall
R: strathspey
B: K\"ohler's Violin Repository, v.1, 1885 p.79 #1
F: http://www.archive.org/details/klersviolinrepos01edin
Z: 2012 John Chambers <jc:trillian.mit.edu>
M: C|
L: 1/8
K: F
uf |\
c<F(c<A) (c<F)c>A | c<F(c>A) {AB}c2ce | f<a(d>f) (c<f)A<f | GG(B>c) {Bc}d2d>f |
c<F(c<A) (c<F)c>A | c<F(c>A) {AB}c2ce | f<a(d>f) (c<f)A<f | GG(B>c) {Bc}d2d |] uf |
c<f(A>f) (c<f)A>f | c<f(A>B) {AB}c2cf | c<f(A>f) (c<f)a>g | f<d(c>A) (AG)G>f |
c<f(A>f) (c<f)A>f | c<f(A>B) {AB}c2ce | f<a(d>f) (c<f)A>f | GG(B>c) "_Segue Reel."{Bc}d2d "^D.C."|]

%%sep 2 1 500

